X:620
T:The Rolling Wave
R:jig
N:
Z:
M:6/8
K:D
"Bm"F2E EDE|"D"F2D D2D|"Bm"F2 E EFA|"G"d2e fdB|
"Bm"F2E EDE|"D"F2 D DEF|"A"AFE EFA|"G"B3 d2B:|
|:"D"ABd e2f|"G"d2c B2A|"D"ABd e2f|"Em"dBA B2B|
"D"ABd ede|"Bm"fdB BAF|"A"AFE EFA|"G"B3 d2B:|
